X:1
T:Auf Meinen Lieben Gott, 66.77.77
T:Auf Meinen Lieben Gott, 66.77.77
T:Jacob Regnart, 1574
T:Public Domain Courtesy of the Cyber Hymnal™
C:Jacob Regnart, 1574
Z:Public Domain
Z:Courtesy of the Cyber Hymnal™
%%score ( 1 2 ) ( 3 4 )
L:1/8
Q:1/4=107
M:2/4
K:G
V:1 treble 
V:2 treble 
V:3 bass 
V:4 bass 
V:1
 [B,E]2 | E2 [EB]2 | [DB]2 [DA]2 | [DB]4- | [DB]2 [DB]2 | [DB]2 [DA]2 | [DG]2 [EG]2 | [^DF]4- | %8
 [DF]2 F2 | [EG]2 [DA]2 | [DB]2 [DB]2 | [DA]4 | !fermata![DB]2 [DF]2 | [DG]2 [DA]2 | [DB]2 [DB]2 | %15
 [DA]4 | !fermata![B,G]2 | [DB]2 | [Dd]2 [DB]2 | [B,B]2 [B,G]2 | [EA]4 | !fermata![DA]2 [DA]2 | %22
 [DB]2 [DA]2 | [B,G]2 [B,G]2 | [B,F]4 | [G,E]2 |] %26
V:2
 x2 | E2 x2 | x4 | x4 | x4 | x4 | x4 | x4 | x2 F2 | x4 | x4 | x4 | x4 | x4 | x4 | x4 | x2 | x2 | %18
 x4 | x4 | x4 | x4 | x4 | x4 | x4 | x2 |] %26
V:3
 [E,G,]2 | [G,B,]2 [E,G,]2 | [B,,F,]2 [F,,A,]2 | [G,,G,]4- | [G,,G,]2 [B,,F,]2 | [G,,G,]2 [D,F,]2 | %6
 [B,,B,]2 [E,B,]2 | [B,,B,]4- | [B,,B,]2 [^D,B,]2 | [E,B,]2 [F,A,]2 | G,2 [B,,G,]2 | (G,2 F,2) | %12
 !fermata![G,,G,]2 [D,A,]2 | [B,,B,]2 [F,,A,]2 | [G,,G,]2 [B,,G,]2 | (G,2 F,2) | %16
 !fermata![G,,G,]2 | G,2 | [F,A,]2 G,2 | [D,F,]2 [E,G,]2 | [^C,G,]4 | !fermata![D,F,]2 [F,A,]2 | %22
 G,2 [D,F,]2 | [E,G,]2 [G,,E,]2 | (E,2 ^D,2) | [E,,E,]2 |] %26
V:4
 x2 | x4 | x4 | x4 | x4 | x4 | x4 | x4 | x4 | x4 | G,2 x2 | D,4 | x4 | x4 | x4 | D,4 | x2 | G,2 | %18
 x2 G,2 | x4 | x4 | x4 | G,2 x2 | x4 | B,,4 | x2 |] %26

